assets/src/images/icons/ic_controls.svg

<svg width="44" height="44" viewBox="0 0 44 44" fill="none" xmlns="http://www.w3.org/2000/svg">
<path fill-rule="evenodd" clip-rule="evenodd" d="M41.0667 11.3667L41.9467 12.0267C43.2667 12.98 44 14.52 44 16.1333V44H42.5333V16.1333C42.5333 14.96 42.02 13.86 41.0667 13.2V21.4133C41.0667 22 40.8467 22.5133 40.4067 22.9533C39.6 23.8333 38.2067 23.8333 37.3267 22.9533L34.54 20.1667C34.0267 19.6533 33.1467 19.6533 32.6333 20.1667C32.12 20.68 32.12 21.56 32.6333 22.0733L34.54 23.98C34.98 24.3467 35.2 24.9333 35.2 25.52V29.3333C35.2 30.5067 35.7133 31.6067 36.6667 32.2667L37.18 32.7067C37.7667 33.1467 38.06 33.8067 38.06 34.4667V44H36.5933V34.4667C36.5933 34.2467 36.52 34.0267 36.3 33.88L35.7133 33.44C35.2733 33.1467 34.9067 32.7067 34.6133 32.2667H9.31333C9.02 32.7067 8.65333 33.1467 8.21333 33.44L7.62667 33.88C7.40667 34.0267 7.33333 34.2467 7.33333 34.4667V44H5.86667V34.4667C5.86667 33.8067 6.16 33.1467 6.74667 32.7067L7.33333 32.2667C8.28667 31.6067 8.8 30.5067 8.8 29.3333V25.52C8.8 24.9333 9.02 24.42 9.46 23.98L11.3667 22.0733C11.88 21.56 11.88 20.68 11.3667 20.1667C10.8533 19.6533 9.97333 19.6533 9.46 20.1667L6.67333 22.9533C6.30667 23.3933 5.72 23.6133 5.13333 23.6133C3.88667 23.6133 2.93333 22.66 2.93333 21.4133V13.2C1.98 13.86 1.46667 14.96 1.46667 16.1333V44H0V16.1333C0 14.52 0.733334 12.98 2.05333 12.0267L2.93333 11.3667V2.2C2.93333 0.953333 3.88667 0 5.13333 0H38.8667C40.1133 0 41.0667 0.953333 41.0667 2.2V11.3667ZM10.2667 29.3333C10.2667 29.8467 10.1933 30.36 10.0467 30.8H33.9533C33.8067 30.36 33.7333 29.8467 33.7333 29.3333H10.2667ZM30.8 21.12C30.8 19.58 32.0467 18.3333 33.5867 18.3333C34.32 18.3333 35.0533 18.6267 35.5667 19.14L36.6667 20.24V4.4H7.33333V20.24L8.43333 19.14C9.53333 18.04 11.2933 18.04 12.3933 19.14C13.4933 20.24 13.4933 22 12.3933 23.1L10.4867 25.0067C10.34 25.1533 10.2667 25.3 10.2667 25.52V27.8667H33.7333V25.52C33.7333 25.3 33.66 25.1533 33.5133 25.0067L31.6067 23.1C31.0933 22.5867 30.8 21.8533 30.8 21.12ZM38.8667 22.1467C39.3067 22.1467 39.6 21.8533 39.6 21.4133V2.2C39.6 1.76 39.3067 1.46667 38.8667 1.46667H5.13333C4.69333 1.46667 4.4 1.76 4.4 2.2V21.4133C4.4 21.56 4.47333 21.78 4.62 21.9267C4.91333 22.22 5.35333 22.22 5.64667 21.9267L5.86667 21.7067V2.93333H38.1333V21.7067L38.3533 21.9267C38.5 22.0733 38.6467 22.1467 38.8667 22.1467ZM18.3333 10.9999C18.3333 8.94658 16.7199 7.33325 14.6666 7.33325C13.3466 7.33325 12.1733 8.06658 11.5133 9.16658C10.4866 10.9266 11.0733 13.1266 12.8333 14.1533L12.0999 15.3999C11.2933 14.8866 10.6333 14.2999 10.1933 13.4933C8.79992 10.9999 9.60659 7.84658 12.0999 6.45325C14.5933 5.05992 17.7466 5.86658 19.1399 8.35992C20.5333 10.8533 19.6533 14.0066 17.2333 15.3999L16.4999 14.1533C17.5999 13.4933 18.3333 12.3199 18.3333 10.9999ZM27.8665 5.86674H29.3332V11.0001H27.8665V5.86674ZM19.0668 21.9999H18.3335C17.0868 21.9999 16.1335 22.9533 16.1335 24.1999C16.1335 25.4466 17.0868 26.3999 18.3335 26.3999C19.5801 26.3999 20.5335 25.4466 20.5335 24.1999V19.7999H24.9335V21.9999H24.2001C22.9535 21.9999 22.0001 22.9533 22.0001 24.1999C22.0001 25.4466 22.9535 26.3999 24.2001 26.3999C25.4468 26.3999 26.4001 25.4466 26.4001 24.1999V18.3333H19.0668V21.9999ZM19.0668 24.1999C19.0668 24.6399 18.7735 24.9333 18.3335 24.9333C17.8935 24.9333 17.6001 24.6399 17.6001 24.1999C17.6001 23.7599 17.8935 23.4666 18.3335 23.4666H19.0668V24.1999ZM24.9335 24.1999C24.9335 24.6399 24.6401 24.9333 24.2001 24.9333C23.7601 24.9333 23.4668 24.6399 23.4668 24.1999C23.4668 23.7599 23.7601 23.4666 24.2001 23.4666H24.9335V24.1999ZM30.4335 8.50667L31.1668 7.26C31.9735 7.77333 32.5602 8.36 33.0735 9.16667C34.4668 11.66 33.6602 14.8133 31.1668 16.2067C28.6735 17.6 25.5202 16.7933 24.1268 14.3C22.7335 11.8067 23.6135 8.65333 26.0335 7.26L26.7668 8.50667C26.2535 8.8 25.7402 9.24 25.4468 9.82667C24.4202 11.5867 25.0068 13.7867 26.7668 14.8133C28.5268 15.84 30.7268 15.2533 31.7535 13.4933C32.7802 11.7333 32.1935 9.53333 30.4335 8.50667ZM13.9335 11.7333H15.4001V16.8666H13.9335V11.7333ZM29.8468 40.8467L28.8201 39.7467C25.0068 43.4134 18.9935 43.4134 15.1801 39.7467L14.1535 40.8467C18.5535 45.0267 25.4468 45.0267 29.8468 40.8467ZM27.4268 38.2067C24.2735 41.1401 19.3601 41.0667 16.3535 37.9134L17.4535 36.8867L17.6735 37.1067C20.2401 39.5267 24.2735 39.4534 26.6935 36.8867L27.7201 37.9134L27.4268 38.2067ZM25.5201 34.9066L24.4201 33.9533C23.4668 35.2733 21.6335 35.5666 20.3135 34.6133C20.0935 34.4666 19.8735 34.2466 19.6535 33.9533L18.5535 34.9066C20.0201 36.8133 22.8068 37.1799 24.7135 35.7133C25.0068 35.4933 25.2268 35.2733 25.5201 34.9066Z" fill="#0EF5FF"/>
</svg>

<svg width="44" height="44" viewBox="0 0 44 44" fill="none" xmlns="http://www.w3.org/2000/svg"><path fill-rule="evenodd" clip-rule="evenodd" d="M41.067 11.367l.88.66C43.267 12.98 44 14.52 44 16.133V44h-1.467V16.133c0-1.173-.513-2.273-1.466-2.933v8.213c0 .587-.22 1.1-.66 1.54-.807.88-2.2.88-3.08 0l-2.787-2.786a1.373 1.373 0 00-1.907 0 1.373 1.373 0 000 1.906l1.907 1.907c.44.367.66.953.66 1.54v3.813c0 1.174.513 2.274 1.467 2.934l.513.44c.587.44.88 1.1.88 1.76V44h-1.467v-9.533c0-.22-.073-.44-.293-.587l-.587-.44c-.44-.293-.806-.733-1.1-1.173h-25.3c-.293.44-.66.88-1.1 1.173l-.586.44c-.22.147-.294.367-.294.587V44H5.867v-9.533c0-.66.293-1.32.88-1.76l.586-.44c.954-.66 1.467-1.76 1.467-2.934V25.52c0-.587.22-1.1.66-1.54l1.907-1.907a1.373 1.373 0 000-1.906 1.373 1.373 0 00-1.907 0l-2.787 2.786c-.366.44-.953.66-1.54.66-1.246 0-2.2-.953-2.2-2.2V13.2c-.953.66-1.466 1.76-1.466 2.933V44H0V16.133c0-1.613.733-3.153 2.053-4.106l.88-.66V2.2c0-1.247.954-2.2 2.2-2.2h33.734c1.246 0 2.2.953 2.2 2.2v9.167zm-30.8 17.966a4.73 4.73 0 01-.22 1.467h23.906a4.73 4.73 0 01-.22-1.467H10.267zM30.8 21.12a2.785 2.785 0 012.787-2.787c.733 0 1.466.294 1.98.807l1.1 1.1V4.4H7.333v15.84l1.1-1.1c1.1-1.1 2.86-1.1 3.96 0s1.1 2.86 0 3.96l-1.906 1.907a.665.665 0 00-.22.513v2.347h23.466V25.52a.665.665 0 00-.22-.513L31.607 23.1a2.833 2.833 0 01-.807-1.98zm8.067 1.027c.44 0 .733-.294.733-.734V2.2c0-.44-.293-.733-.733-.733H5.133c-.44 0-.733.293-.733.733v19.213c0 .147.073.367.22.514a.709.709 0 001.027 0l.22-.22V2.933h32.266v18.774l.22.22a.67.67 0 00.514.22zM18.333 11a3.631 3.631 0 00-3.666-3.667c-1.32 0-2.494.734-3.154 1.834a3.618 3.618 0 001.32 4.986L12.1 15.4c-.807-.513-1.467-1.1-1.907-1.907C8.8 11 9.607 7.847 12.1 6.453c2.493-1.393 5.647-.586 7.04 1.907 1.393 2.493.513 5.647-1.907 7.04l-.733-1.247c1.1-.66 1.833-1.833 1.833-3.153zm9.534-5.133h1.466V11h-1.466V5.867zM19.066 22h-.733c-1.247 0-2.2.953-2.2 2.2 0 1.247.953 2.2 2.2 2.2 1.246 0 2.2-.953 2.2-2.2v-4.4h4.4V22H24.2c-1.247 0-2.2.953-2.2 2.2 0 1.247.953 2.2 2.2 2.2 1.247 0 2.2-.953 2.2-2.2v-5.867h-7.333V22zm0 2.2c0 .44-.294.733-.733.733-.44 0-.734-.293-.734-.733s.293-.733.733-.733h.734v.733zm5.866 0c0 .44-.293.733-.733.733s-.733-.293-.733-.733.293-.733.733-.733h.733v.733zm5.5-15.693l.734-1.247a5.92 5.92 0 011.907 1.907c1.393 2.493.586 5.646-1.907 7.04-2.494 1.393-5.647.586-7.04-1.907-1.393-2.493-.514-5.647 1.907-7.04l.733 1.247c-.514.293-1.027.733-1.32 1.32a3.618 3.618 0 001.32 4.986 3.618 3.618 0 004.986-1.32 3.618 3.618 0 00-1.32-4.986zm-16.5 3.226H15.4v5.134h-1.466v-5.134zm15.914 29.114l-1.027-1.1a9.832 9.832 0 01-13.64 0l-1.027 1.1a11.387 11.387 0 0015.694 0zm-2.42-2.64c-3.154 2.933-8.067 2.86-11.073-.294l1.1-1.026.22.22c2.566 2.42 6.6 2.346 9.02-.22l1.026 1.026-.293.294zm-1.907-3.3l-1.1-.954a2.936 2.936 0 01-4.107.66c-.22-.146-.44-.366-.66-.66l-1.1.954c1.467 1.906 4.254 2.273 6.16.806.294-.22.514-.44.807-.806z" fill="#0EF5FF"/></svg>
